!!!!SEGMENT: pl-kk--kk-i-38--003_lasso-orlando-di--illustra-faciem-tuam.krn
!!!cenid: 16xx:1253
!!!COM: Lasso, Orlando di
!!!COM-rismID: pe506
!!!CDT: ~1532-1594/06/14
!!!CNT: French-Flemish
!!!OTL: Illustra faciem tuam
!!!PDT:
!!!AGN: Sacred
!!!SMS-siglum: PL-Kk
!!!SMS-shelfmark: Kk.I.38
!!!SMS-shelfwork: 003 W
!!!SMS-variant:
!!!SMS-altvar:
!!!NIFC-rismSourceID: 1001154370
!!!NIFC-islandoraID: pl-kk:2701
!!!URL-pdf-islandora: https://repozytorium.nifc.pl/islandora/object/pl-kk%3A2701/datastream/PDF/view
!!!URL-scan: https://polish.musicsources.pl/pl/lokalizacje/galeria/rekopisy/5992 @EN{Scan on Polish Music Sources Website} @PL{Skany w portalu Dziedzictwo Muzyki Polskiej w otwartym dostępie}
!!!ONB-nifc: Lib. 1. Fol. 11. 2da parte (jeśli występuje),< należy do utworu tytułowego
!!!AIN: 1 empty
!!!key:
**kern	**text
*Iempty	*
*I"Baſso Ripieno.	*
*I'b rip	*
*clefF3	*
*k[b-]	*
*B-:	*
*M2/1	*
*met(C|)	*
=1-	=1-
!LO:TX:a:t=Lib. 1. Fol. 11	!
!LO:TX:t=P:problem=znaki BB- B-	!
00r	.
=2-	=2-
.	.
=3-	=3-
!LO:TX:t=P:problem=kreska pseudotaktowa	!
00r	.
=4-	=4-
.	.
=5-	=5-
0F	Il-
=6-	=6-
1A	-lu-
*2\right	*
2B-\	-stra
1B-\	Fa-
=7-	=7-
.	.
2B-\	-ci-
2A\	-em
2B-\	tu-
=8-	=8-
!LO:TX:t=P:problem=kreska pseudotaktowa	!
0F	-am
=9-	=9-
0r	.
=10-	=10-
0C	Il-
=11-	=11-
1D	-lu-
!LO:TX:t=P:problem=kreska pseudotaktowa	!
1F	-stra
=12-	=12-
2.C/	Fa-
4C/	-ci-
1G	-em
=13-	=13-
2.D/	tu-
4E/	.
4F\	.
4G\	.
!LO:TX:t=P:problem=kreska pseudotaktowa	!
2A\	.
=14-	=14-
!LO:TX:a:t=P:global:problem=oddech jako rozdzielacz słów	!
1F,<	-am
1B-	su-
=15-	=15-
2F\	-per
2.c\	Ser-
4B-\	.
4A\	.
4G\	.
=16-	=16-
2F/	.
!LO:TX:t=P:problem=kreska pseudotaktowa	!
2D/	-vum
1A	Tu-
=17-	=17-
!LO:TX:t=P:problem=kreska pseudotaktowa	!
1G	-um
!LO:LB:g=original	!
2r	.
1c\	Sal-
=18-	=18-
.	.
2c\	-vum
1A	me
=19-	=19-
!LO:TX:t=P:problem=kreska pseudotaktowa	!
1d	fac
2.B-\	in
4B-\	mi-
=20-	=20-
2B-\	-ſe-
!LO:TX:t=P:problem=kreska pseudotaktowa	!
2G\	-ri-
2.c\	-cor-
4B-\	.
=21-	=21-
4A\	.
4G\	.
4F/	.
4E/	.
2D/	.
2D/	-di-
=22-	=22-
!LO:TX:t=P:problem=kreska pseudotaktowa	!
1BB-	-a
1F	tu-
=23-	=23-
!LO:TX:t=P:problem=kreska pseudotaktowa	!
0C,<	-a.
=24-	=24-
00r	.
=25-	=25-
.	.
=26-	=26-
!LO:TX:t=P:problem=kreska pseudotaktowa	!
1r	.
1.F	Sal-
=27-	=27-
.	.
2F/	-vum
1E,<	me
=28-	=28-
2G,<\	fac
!LO:TX:t=P:problem=kreska pseudotaktowa	!
2G\	in
2C/	mi-
2.c\	-ſe[[r]]-
=29-	=29-
.	.
4B-\	.
4A\	.
4G\	.
2F/	.
!LO:TX:t=P:problem=kreska pseudotaktowa	!
2F/	-ri-
=30-	=30-
2C/	-cor-
2C/	-di-
2G,<\	-a
2.D/	tu-
=31-	=31-
.	.
4E/	.
!LO:TX:t=P:problem=kreska pseudotaktowa	!
2F/	.
!LO:LB:g=original	!
2.C/	-a
4D/	.
=32-	=32-
2E,</	.
1F	Do-
2F/	-mi-
=33-	=33-
!LO:TX:t=P:problem=kreska pseudotaktowa	!
1C	-ne
2r	.
1F\	non
=34-	=34-
.	.
2F\	con-
2.B-\	-fun-
4A\	.
=35-	=35-
2G\	.
!LO:TX:t=P:problem=kreska pseudotaktowa	!
2F\	-dar
2r	.
2.c\	non
=36-	=36-
.	.
4B-\	.
4A\	.
4G\	.
2F\	.
2F\	con-
=37-	=37-
1G	-dun-
!LO:TX:t=P:problem=kreska pseudotaktowa	!
1C	-dar
=38-	=38-
1.F	quo-
2F\	-ni-
=39-	=39-
!LO:TX:t=P:problem=kreska pseudotaktowa	!
0C	-am
=40-	=40-
*lig	*
1c	in-
1d	.
*Xlig	*
=41-	=41-
2.c\	-vo-
4B-\	.
2A\	.
4B-\	ca-
!LO:TX:t=P:problem=kreska pseudotaktowa	!
4A\	.
=42-	=42-
4B-\	.
4c\	.
2d\	.
1c	-vi
=43-	=43-
!LO:TX:t=P:problem=kreska pseudotaktowa	!
0F	Te,
!LO:LB:g=original	!
=44-	=44-
00r	.
=45-	=45-
.	.
=46-	=46-
!LO:TX:t=P:problem=kreska pseudotaktowa	!
0r	.
=47-	=47-
1.F	quo-
2F\	-ni-
=48-	=48-
!LO:TX:t=P:problem=kreska pseudotaktowa	!
1F	-am
1F	in-
=49-	=49-
1c	-vo-
2.A\	-ca-
4G\	.
=50-	=50-
1F	.
!LO:TX:t=P:problem=kreska pseudotaktowa	!
1G	-vi
=51-	=51-
2C,</	Te,
1c	in-
2c\	-vo-
=52-	=52-
1A	-ca-
!LO:TX:t=P:problem=kreska pseudotaktowa	!
1F	-vi
=53-	=53-
0C;l	Te.
=54||-	=54||-
*k[b-]	*
*met(c|)	*
!LO:TX:a:t=2da\nparte	!
!LO:TX:t=P:problem=znaki BB- B-	!
1r	.
0F	Quàm
=55-	=55-
.	.
0C	ma-
=56-	=56-
.	.
2BB-,</	-gna
1B-\	mul-
=57-	=57-
.	.
2B-\	-ti-
0B-	tu-
=58-	=58-
.	.
!LO:TX:t=P:problem=kreska pseudotaktowa	!
0F	-do
=59-	=59-
.	.
!LO:LB:g=original	!
1r	.
=60-	=60-
0C	Quàm
=61-	=61-
0G	ma-
=62-	=62-
!LO:TX:t=P:problem=kreska pseudotaktowa	!
1D	-gna
1.F	mul-
=63-	=63-
.	.
2F\	-ti-
0D	-tu-
=64-	=64-
.	.
!LO:TX:t=P:problem=kreska pseudotaktowa	!
0C	-do
=65-	=65-
.	.
0BB-	dul-
=66-	=66-
.	.
1.E	-ce-
=67-	=67-
.	.
2E/	-di-
!LO:TX:t=P:problem=kreska pseudotaktowa	!
1BB-	-nis
=68-	=68-
1F	tu-
!LO:TX:t=P:problem=kreska pseudotaktowa	!
1C	-ae
=69-	=69-
1r	.
0C	dul-
=70-	=70-
.	.
1.F	-ce-
=71-	=71-
.	.
2F\	-di-
!LO:TX:t=P:problem=kreska pseudotaktowa	!
1G	-nis
=72-	=72-
1D	tu-
!LO:TX:t=P:problem=kreska pseudotaktowa	!
1A	-ae
=73-	=73-
2.B-\	Do-
4A\	.
2G\	.
2G\	-mi-
=74-	=74-
!LO:TX:t=P:problem=kreska pseudotaktowa	!
0F	-ne;
=75-	=75-
0r	.
=76-	=76-
!LO:TX:t=P:problem=kreska pseudotaktowa	!
1r	.
1F	quam
=77-	=77-
2F/	ab-
*custos:G	*
2D/	-scon-
!LO:LB:g=original	!
1G	-di-
=78-	=78-
!LO:TX:t=P:problem=kreska pseudotaktowa	!
1F	-sti
0r	.
=79-	=79-
.	.
!LO:TX:t=P:problem=kreska pseudotaktowa	!
1r	.
=80-	=80-
1B-	quam
2B-\	ab-
2G\	-scon-
=81-	=81-
1c	-di-
!LO:TX:t=P:problem=kreska pseudotaktowa	!
1G	-sti
=82-	=82-
0r	.
=83-	=83-
!LO:TX:t=P:problem=kreska pseudotaktowa	!
1r	.
*	*ij
1F	quam
=84-	=84-
2F/	ab-
2D/	-scon-
1G	-di-
=85-	=85-
!LO:TX:t=P:problem=kreska pseudotaktowa	!
1F	-sti
*	*Xij
!LO:TX:t=P:problem=kreska pseudotaktowa	!
0r	.
=86-	=86-
.	.
2r	.
2A\	quam
=87-	=87-
2A\	ab-
2F\	-ſcon-
1B-	-di-
=88-	=88-
!LO:TX:t=P:problem=kreska pseudotaktowa	!
1A	-sti
1F	ti-
=89-	=89-
2.BB-/	-men-
4BB-/	-ti-
1C	-b(us)
=90-	=90-
!LO:TX:t=P:problem=kreska pseudotaktowa	!
1F	Te
0r	.
=91-	=91-
.	.
2r	.
2c\	quam
=92-	=92-
2c\	ab-
2A\	-ſcon-
!LO:TX:t=P:problem=kreska pseudotaktowa	!
1d	-di-
!LO:LB:g=original	!
=93-	=93-
2c,<\	-sti
2C/	ti-
2.F\	-men-
4F\	-ti-
=94-	=94-
1BB-	-b(us)
!LO:TX:t=P:problem=kreska pseudotaktowa	!
1C	Te.
=95-	=95-
2r	.
2F\	quam
2F\	ab-
2D/	-ſcon-
=96-	=96-
1G	-di-
2.F/	.
4E/	.
=97-	=97-
!LO:TX:t=P:problem=kreska pseudotaktowa	!
1D	-sti
0r	.
=98-	=98-
.	.
!LO:TX:t=P:problem=kreska pseudotaktowa	!
1r	.
=99-	=99-
*	*ij
1C	quam
2C/	ab-
2AA/	-ſcon-
=100-	=100-
1D	-di-
!LO:TX:t=P:problem=kreska pseudotaktowa	!
1C	-sti
*	*Xij
=101-	=101-
2r	.
2F/	ti-
2.D/	-men-
4C/	.
=102-	=102-
2BB-/	.
2AA/	ti-
0.BB-	-bus
=103-	=103-
.	.
=104-	=104-
0F;l	Te.
==	==
*-	*-
!!!RDF**kern: < = below
!!!RDF**kern: l = terminal long
!!!ENC: Marta Lawrence
!!!END: 2021-07-30
!!!ENC: Krzysztof Stępień
!!!END: 2021-07-01
